X:1
T:Ritournelle
T:Ritournelle
T:from "Platée" (RCT 53) arr. for Flute, Violin and Cello 
T:Jean-Philippe Rameau (1683-1764)
T:Pierre Jéliotte in the Role of the Nymph Plataea, by Ch. Antoine Coypel, 1745
T: 
T:twoflutes 2019 / Felix Scharpf / https://upload.wikimedia.org/wikipedia/commons/2/22/J%C3%A9lyotte_by_Coypel.jpg
T:twoflutes 2019 / Felix Scharpf / https://upload.wikimedia.org/wikipedia/commons/2/22/J%C3%A9lyotte_by_Coypel.jpg
T:twoflutes 2019 / Felix Scharpf / https://upload.wikimedia.org/wikipedia/commons/2/22/J%C3%A9lyotte_by_Coypel.jpg
C:Jean-Philippe Rameau
Z:twoflutes 2019 / Felix Scharpf / https://upload.wikimedia.org/wikipedia/commons/2/22/J%C3%A9lyotte_by_Coypel.jpg
%%score [ 1 2 3 ]
L:1/8
Q:1/2=90
M:2/2
K:G
V:1 treble nm="Flute" snm="Fl."
V:2 treble nm="Violin" snm="Vl."
V:3 alto nm="Violoncello" snm="Vc."
V:1
"^Ritournelle vive"!mf! d2 (ef) g(f g2-) | g4!mp! f4 |!mf! B2 (cd) (ed) e2- | e4!mp! d4 | %4
!mf! G2 (AB) (cB) c2- | c4 B4- |!mp! B2 (cB) (AB)(GA) | (F3 G) (PG3 F/G/) | A2!mf! (Bc) (dc) d2- | %9
 d2 B2 e4- | e2 (d^c) (fe) f2- | f2 d2 g4- | g2 (fe) a(g a2-) | a2 f2 b4- | b(.a.g.f .e.d.^c.B) | %15
 (.d.^c.B.A) (d3 g) | f4 (Pe3 d) | d2 (ef) g(f g2) |!mp!!<(! (g4 Pf4 | e2) (fg) (ag) a2 | (a4 Pg4 | %21
 f2) (ga) (ba) b2 | (b4 Pa4 | g2) (ab) (c'b)!mf! c'2 | c'8-!<)! |!<(! c'4- c'b(ac') | %26
 (bc')(gb) (ac')(fa) | g4- ga(eg) | (.f.g.a.g .f.e.d.c) | B4 g4- |!mf! g4!<)! f4 | %31
!mp!!>(! (gd)(ec) (dB)(cA) | (Bd)(cA)[Q:1/2=70] (BG)[Q:1/2=60](A[Q:1/2=50]F) |!p! G8!>)! |] %34
V:2
 z8 |!mf! A2 (Bc) (dc) d2 | (G6 AG) |!mp! F2 (GA) (BA) B2 | (E6 FE) |!mf! D2 (EF) (GF) G2 | %6
 E4 c4- | c2 (BA) (cBAG) | F4 A2!mf! (GA) | (BA) B4 (^cd) | (^cB) c4!mp! (Bc) | (d^c) d4 (ef) | %12
 (ed) e4 (de) | (fe) d2 d4 | z4 z2 g2 | (.f.e.d.^c){B} (A3 d) | d4 (P^c3 d) | d8 |!<(! z8 | %19
!mp! G2 (AB) (cB) c2 | (c4 PB4 | A2) (Bc) (dc) d2 | (d4 Pc4 | B2) (cd) (ed) e2 |!mf! e4!<)! a4 | %25
!mp!!<(! f8 | g4 f4 | e8 | A8 | z (DEF GA) B2 |!mf! A4!<)! A4 |!mp!!>(! (GB)(cA) (BG)(AF) | %32
 (GD)(EC) (DB,)(CA,) |!p! B,8!>)! |] %34
V:3
 z4 G4 | D4 D,4 | E,4 E4 | B,4 B,,4 | C,4 C4 | G,4 G,,4 | C,4 E,4 | D,4 G,,4 | %8
 D,,4 D,2!mf! (E,F,) | (G,F,) G,4 E,2 | A,4 F,2!mp! (G,A,) | (B,A,) B,4 (^CD) | ^C4 A,2 (B,C) | %13
 (D^C) D2 G,4 | z8 | G,4 (PF,3 G,) | A,4 A,,4 | D,4 C,4 |!mp!!<(! B,,8 | C,4 B,,4 | A,,8 | %21
 D,4 C,4 | B,,8 | E,4 D,4 |!mf! C,4!<)! A,,4 |!mp!!<(! D,8- | D,8 | D4 P^C4 | D6 F,2 | G,4 E,4 | %30
!mf! C,4!<)! D,4 |!mp!!>(! G,,8- | G,,8- |!p! G,,8!>)! |] %34

